kora/mimetypes/scalable/text-x-vue.svg

<svg clip-rule="evenodd" fill-rule="evenodd" stroke-linejoin="round" stroke-miterlimit="2" viewBox="0 0 48 48" xmlns="http://www.w3.org/2000/svg" xmlns:xlink="http://www.w3.org/1999/xlink"><linearGradient id="a" gradientTransform="matrix(0 -49.619 49.619 0 615.22 51.088)" gradientUnits="userSpaceOnUse" x1="0" x2="1" y1="0" y2="0"><stop offset="0" stop-color="#528241"/><stop offset="1" stop-color="#60924f"/></linearGradient><path d="m54 3.146c0-.926-.751-1.677-1.677-1.677h-34.705c-2.02 0-3.958.803-5.387 2.231-1.428 1.429-2.231 3.367-2.231 5.387v45.295c0 2.02.803 3.958 2.231 5.387 1.429 1.428 3.367 2.231 5.387 2.231h28.764c2.02 0 3.958-.803 5.387-2.231 1.428-1.429 2.231-3.367 2.231-5.387z" fill="url(#a)" transform="matrix(.75 0 0 .75 0 .199125)"/><path d="m34 21-10 17-10-17h2l8 14 8-14zm-10 4-2.5-4h-3.5l6 10 6-10h-3.5z" fill="#324c29" fill-rule="nonzero" transform="matrix(1.12575 0 0 1.12575 -3.01795 -7.90628)"/></svg>

<svg xmlns="http://www.w3.org/2000/svg" width="48" height="48" version="1.1">
 <path style="opacity:0.2" d="m10 5c-1.108 0-2 0.892-2 2v36c0 1.108 0.892 2 2 2h28c1.108 0 2-0.892 2-2v-26l-12-12z"/>
 <path style="fill:#60924f" d="m10 4c-1.108 0-2 0.892-2 2v36c0 1.108 0.892 2 2 2h28c1.108 0 2-0.892 2-2v-26l-10-2-2-10z"/>
 <path style="opacity:0.2" d="m40 17-12-12v10c0 1.108 0.892 2 2 2z"/>
 <path style="fill:#74b055" d="m40 16-12-12v10c0 1.108 0.892 2 2 2z"/>
 <path style="fill:#ffffff;opacity:0.2" d="m10 4c-1.108 0-2 0.892-2 2v1c0-1.108 0.892-2 2-2h18v-1h-18z"/>
 <path style="opacity:0.2" d="M 34,22 24,39 14,22 H 16 L 24,36 32,22 Z M 24,26 21.5,22 H 18 L 24,32 30,22 H 26.5 Z"/>
 <path style="fill:#fefefe" d="M 34,21 24,38 14,21 H 16 L 24,35 32,21 Z M 24,25 21.5,21 H 18 L 24,31 30,21 H 26.5 Z"/>
</svg>
